assets/logos/faithandform.svg

<svg fill="none" height="65" viewBox="0 0 90 65" width="90" xmlns="http://www.w3.org/2000/svg"><path d="m16.71 13.16c.35.03.54.05.73.05h5.87c.76 0 .79-.03.79-.83 0-2.92 0-5.84002-.01-8.77002 0-.2-.09-.41-.14-.62-.17.13-.39.23003-.51.40003-2.12 3.01-4.23 6.03999-6.33 9.05999-.12.19-.21.38-.4.71zm24.13 26.55c0 1.71.01 3.42 0 5.13 0 .43.06.79.59.77 1.67-.04 3.26-.31 4.7-1.34 2.72-1.96 3.15-5.79.91-8.31-1.49-1.68-3.38-2.22-5.49-2.17-.54.01-.71.25-.71.79.01 1.71 0 3.42 0 5.13zm-22.75-5.62c-.02-.09-.04-.19-.06-.28-.49 0-.98 0-1.47 0-4.69.02-9.38999.04-14.07999.04-.47 0-.60001.23-.60001.68.01 3.38.02 6.76 0 10.14 0 .59.22999.73.72999.72 2.1-.02 4.19-.04 6.29 0 .67.01.89-.27 1.06-.9 1.20001-4.44 3.75001-7.74 7.54001-9.99.2-.11.39-.27.59-.41zm55.2-10.94c.06.51.08 1.03.18 1.53 1.23 6.03 7.58 8.56 12.18 4.87.4-.32.47-.6.24-1.09-.42-.88-.77-1.8-1.14-2.7-1.41-3.39-2.83-6.78-4.24-10.17-.17-.4-.41-.48-.79-.41-3.67.67-6.35 4.01-6.43 7.97zm-59.49 9.1v-.03c3.2 0 6.4-.01 9.61.01.49 0 .71-.15.71-.7-.01-5.34-.01-10.68-.01-16.02 0-.48-.18-.65-.62-.65-2.49.01-4.97-.01-7.46.02-.29.01-.67.22-.86.47-.68.88-1.29 1.8-1.93 2.71-3.12 4.47-6.23999 8.94-9.34999 13.42-.12.17-.15001.4-.23001.6.19.06.37999.16.57999.16 3.19.01 6.38001.01 9.56001.01zm9.82 31.08c4.45.03 7.21-.83 9.63-2.7 4.54-3.5 6.63-8.24 5.81-14.15-.95-6.91-6.68-12.16-13.27-12.39-4.21-.15-7.88 1.28-10.9 4.48-3.87 4.09-5.14999 10.51-2.88 15.75 2.54 5.86 6.99 8.81 11.61 9.01zm15.48-7.17c-.14.18-.3.35-.42.54-2.51 4.4-6.15 7.1-10.91 8.01-4.26.82-8.21-.14-11.75-2.77-3.36-2.5-5.51-5.92-6.33-10.2-.25-1.32-.22-2.7-.25-4.05-.01-.51-.12999-.68-.61999-.68-2.06.02-4.12002.01-6.17002.02-.74 0-.75998.02-.75998.79v15.77c0 .8-.09002.89-.84002.88-.630002-.01-.709994-.11-.709994-.89-.01-20.87-.009998-41.73-.029998-62.599997 0-.61.21-.790009.750002-.790009 3.61.01 7.22999.00999 10.84-.01001 3.18-.01 6.36-.050007 9.53-.070007.23 0 .47.060006.73.100006-.43 1.179997-.89 1.540007-1.91 1.540007-5.88.01-11.76999.00999-17.64999.01999-.72 0-.81002.08002-.80002.86002.02 1.99.06001 3.97998.07001 5.97998 0 1.37-.02001 2.74002-.07001 4.11002-.02.63.32.64.75.64 3.24-.01 6.49001-.01 9.73001-.02h.63c.04.73-.77 1.65-1.41 1.65-2.95 0-5.89999 0-8.85999 0-.8 0-.79002.07-.78002.93.03 1.58-.02 3.17-.03 4.76 0 .41.06002.82.06002 1.23.01 2.64.01 5.28 0 7.92 0 .24-.07001.49-.05001.73.02.21.11999.41.17999.61.17-.1.39-.16.5-.32.76-1.07 1.49002-2.15 2.24002-3.23 2.82-4.05 5.64999-8.09 8.46999-12.14 2.31-3.32 4.6-6.66002 6.9-9.99002 1.13-1.64 2.28-3.26999 3.42-4.899992.32-.45 1.44-.769982 1.83-.449982.18.15.26.539977.26.819977.02 4.629997.02 9.270017.02 13.900017v16.76c0 .87.07.92.88.99 3.33.26 6.24 1.62 8.8 3.88 1.39 1.22 2.53 2.66 3.42 4.32.08.14.29.21.45.31.05-.17.14-.33.14-.5-.01-1.38-.06-2.75-.07-4.13-.01-1.33.04-2.66.05-3.99.01-2.78.02-5.56.02-8.34 0-4.98 0-9.96-.01-14.94001 0-1.4-.06-2.80001-.06-4.20001 0-.9.03-1.79998.07-2.69998.02-.48-.13-.71002-.63-.71002-2.21.02-4.43.03002-6.64.02002-.51 0-.68.23-.68.75.01 2.35 0 4.69998.01 7.04998.01 1.68002.06 3.36002.07 5.04002.01 5.69.01 11.37 0 17.06 0 .25-.12.67-.27.72-.33.1-.74.1-1.07-.02-.13-.05-.19-.5-.19-.77-.01-4.7-.01-9.4-.01-14.1 0-5.48 0-10.97-.02-16.450005 0-.6.13-.8300167.74-.8300167 6.07-.01 12.14-.0499866 18.21-.07998661.81 0 .82.01998541.82.85998531v11.630023c0 .78.08.86.79.86 4.72 0 9.43-.01 14.15-.02h2.14c.52 0 .63-.2.63-.77-.01-2.80001.01-5.58999.01-8.38999 0-1.09-.05-2.18002-.06-3.270024-.01-.73.19-.9099943.87-.89999431.46.01.67.23000131.66.72000131-.01 1.029997 0 2.059997 0 3.089997.01 9.18001.01 18.35001.01 27.53001 0 .76-.15.93-.82.94-.44.01-.66-.15-.66-.69.02-4.66.01-9.32.01-13.98 0-.64-.02-1.27.01-1.91.02-.57-.17-.82-.74-.82-3.47.04-6.94.08-10.42.09-1.47.01-2.95-.04-4.42-.06-.52-.01-1.04-.01-1.56.01-.42.01-.62.21-.62.69.04 5.25.06 10.5.09 15.75 0 .79-.05.85-.79.85-.71 0-.75-.05-.75-.89 0-9.53 0-19.05-.01-28.58002 0-1.19 0-1.15-1.12-1.13-1.84.04-3.68.01002-5.52.02002-.76 0-.78.03-.78.85 0 8.23.01 16.46.01 24.68 0 1.46.01 2.92.01 4.38 0 .51.2.76.71.73 1.59-.08 3.12.18 4.55.99 1.92 1.08 3.24 2.7 3.77 4.92s-.06 4.24-1.43 5.98c-1.28 1.62-2.95 2.56-4.91 2.92-.52.09-.6.28-.28.71 3.4 4.66 6.81 9.33 10.22 13.98.2.27.49.48.73.72.15-.32.34-.62.43-.95 1.03-3.93 2.03-7.87 3.06-11.8.86-3.28 1.74-6.55 2.6-9.82.61-2.33 1.22-4.66 1.8-7 .13-.54.38-.78.89-.74.15.01.31 0 .47.01.82.01.92.1 1.13.92.73 2.83 1.48 5.65 2.2 8.48.85 3.34 1.67 6.7 2.52 10.04.72 2.81 1.47 5.61 2.2 8.41.07.28.12.56.22.83.06.15.18.28.28.41.12-.14.3-.26.34-.42.35-1.26.66-2.53 1-3.79.61-2.29 1.22-4.57 1.83-6.86.77-2.88 1.54-5.76 2.32-8.63.72-2.66 1.43-5.32 2.16-7.98.15-.56.05-.73-.54-.89-3.63-1.02-6.06-3.38-7.02-7.27-.97-3.97.85-8.43 4.2-10.49.69-.42.69-.49.03-.96-2.08-1.51-3.21-3.6-3.23-6.28002-.03-3.59 2.76-6.799987 6.12-7.239987 1.82-.23 3.44.229986 4.93 1.329987.4.29.56.64001.52 1.14001-.03.42-.01.84002-.01 1.45002-.49-.47-.81-.84003-1.18-1.15003-1.81-1.5-3.83-1.66999-5.83-.64999-1.93.99-2.97 2.73999-3.02 5.08999-.07 3.24002 2.51 6.02002 5.56 5.83002 1.09-.07 1.08-.01 1.52 1.03 1.7 4.05 3.4 8.1 5.11 12.15.32.75.6 1.52.95 2.25.2.4.07.64-.18.91-1.32 1.47-2.92 2.41-4.79 2.85-.64.15-.72.31-.55.99 1.01 3.89 2.02 7.79 3.02 11.68.62 2.41 1.21 4.83 1.83 7.24.79 3.12 1.59 6.25 2.39 9.37.15.59.3 1.19.44 1.79.03.12.03.3-.03.39-.28.38-1.42.15-1.54-.32-.32-1.18-.62-2.37-.92-3.56-.26-1.03-.49-2.07-.76-3.09-.83-3.24-1.67-6.49-2.5-9.73-.89-3.48-1.78-6.97-2.67-10.45-.15-.58-.3-1.16-.44-1.73-.07 0-.14 0-.21 0-.09.16-.21.31-.26.49-.99 3.81-1.96 7.63-2.96 11.44-.73 2.78-1.51 5.55-2.25 8.33-.71 2.68-1.42 5.36-2.11 8.05-.15.58-.43.81-.99.79-1.42-.04-1.28.14-1.65-1.3-.88-3.5-1.74-7.02-2.64-10.52-.7-2.75-1.45-5.49-2.16-8.24-.6-2.35-1.18-4.71-1.77-7.07-.15-.61-.3-1.23-.48-1.83-.04-.15-.21-.26-.32-.38-.1.13-.25.25-.29.4-1.08 4.09-2.14 8.18-3.21 12.26-1.24 4.74-2.48 9.48-3.72 14.22-.15.57-.31 1.15-.42 1.73-.11.57-.38.82-.93.75-.21-.03-.43-.02-.64 0-.4.03-.67-.13-.93-.48-3.21-4.41-6.43-8.81-9.64-13.21-.63-.86-1.23-1.74-1.87-2.59-.14-.19-.38-.29-.58-.43-.05.26-.13.53-.16.79-.02.2.04.41.04.61v14.41c0 .82-.53 1.23-1.24.88-.17-.08-.3-.45-.3-.69-.02-2.25-.01-4.5-.01-6.74 0-.23-.04-.46-.06-.7-.04-.05-.1-.07-.17-.09z" fill="#000"/></svg>

<svg width="90" height="65" viewBox="0 0 90 65" fill="none" xmlns="http://www.w3.org/2000/svg">
<path d="M16.71 13.16C17.06 13.19 17.25 13.21 17.44 13.21C19.4 13.21 21.36 13.21 23.31 13.21C24.07 13.21 24.1 13.18 24.1 12.38C24.1 9.46 24.1 6.53998 24.09 3.60998C24.09 3.40998 24 3.19998 23.95 2.98998C23.78 3.11998 23.56 3.22001 23.44 3.39001C21.32 6.40001 19.21 9.43 17.11 12.45C16.99 12.64 16.9 12.83 16.71 13.16ZM40.84 39.71C40.84 41.42 40.85 43.13 40.84 44.84C40.84 45.27 40.9 45.63 41.43 45.61C43.1 45.57 44.69 45.3 46.13 44.27C48.85 42.31 49.28 38.48 47.04 35.96C45.55 34.28 43.66 33.74 41.55 33.79C41.01 33.8 40.84 34.04 40.84 34.58C40.85 36.29 40.84 38 40.84 39.71ZM18.09 34.09C18.07 34 18.05 33.9 18.03 33.81C17.54 33.81 17.05 33.81 16.56 33.81C11.87 33.83 7.17001 33.85 2.48001 33.85C2.01001 33.85 1.88 34.08 1.88 34.53C1.89 37.91 1.9 41.29 1.88 44.67C1.88 45.26 2.10999 45.4 2.60999 45.39C4.70999 45.37 6.79999 45.35 8.89999 45.39C9.56999 45.4 9.78999 45.12 9.95999 44.49C11.16 40.05 13.71 36.75 17.5 34.5C17.7 34.39 17.89 34.23 18.09 34.09ZM73.29 23.15C73.35 23.66 73.37 24.18 73.47 24.68C74.7 30.71 81.05 33.24 85.65 29.55C86.05 29.23 86.12 28.95 85.89 28.46C85.47 27.58 85.12 26.66 84.75 25.76C83.34 22.37 81.92 18.98 80.51 15.59C80.34 15.19 80.1 15.11 79.72 15.18C76.05 15.85 73.37 19.19 73.29 23.15ZM13.8 32.25V32.22C17 32.22 20.2 32.21 23.41 32.23C23.9 32.23 24.12 32.08 24.12 31.53C24.11 26.19 24.11 20.85 24.11 15.51C24.11 15.03 23.93 14.86 23.49 14.86C21 14.87 18.52 14.85 16.03 14.88C15.74 14.89 15.36 15.1 15.17 15.35C14.49 16.23 13.88 17.15 13.24 18.06C10.12 22.53 7.00001 27 3.89001 31.48C3.77001 31.65 3.74 31.88 3.66 32.08C3.85 32.14 4.03999 32.24 4.23999 32.24C7.42999 32.25 10.62 32.25 13.8 32.25ZM23.62 63.33C28.07 63.36 30.83 62.5 33.25 60.63C37.79 57.13 39.88 52.39 39.06 46.48C38.11 39.57 32.38 34.32 25.79 34.09C21.58 33.94 17.91 35.37 14.89 38.57C11.02 42.66 9.74001 49.08 12.01 54.32C14.55 60.18 19 63.13 23.62 63.33ZM39.1 56.16C38.96 56.34 38.8 56.51 38.68 56.7C36.17 61.1 32.53 63.8 27.77 64.71C23.51 65.53 19.56 64.57 16.02 61.94C12.66 59.44 10.51 56.02 9.69 51.74C9.44 50.42 9.47 49.04 9.44 47.69C9.43 47.18 9.31001 47.01 8.82001 47.01C6.76001 47.03 4.69999 47.02 2.64999 47.03C1.90999 47.03 1.89001 47.05 1.89001 47.82C1.89001 53.08 1.89001 58.34 1.89001 63.59C1.89001 64.39 1.79999 64.48 1.04999 64.47C0.419988 64.46 0.339996 64.36 0.339996 63.58C0.329996 42.71 0.329998 21.85 0.309998 0.980003C0.309998 0.370003 0.519998 0.189994 1.06 0.189994C4.67 0.199994 8.28999 0.199984 11.9 0.179984C15.08 0.169984 18.26 0.129977 21.43 0.109977C21.66 0.109977 21.9 0.169983 22.16 0.209983C21.73 1.38998 21.27 1.74999 20.25 1.74999C14.37 1.75999 8.48001 1.75998 2.60001 1.76998C1.88001 1.76998 1.78999 1.85 1.79999 2.63C1.81999 4.62 1.86 6.60998 1.87 8.60998C1.87 9.97998 1.84999 11.35 1.79999 12.72C1.77999 13.35 2.11999 13.36 2.54999 13.36C5.78999 13.35 9.04 13.35 12.28 13.34C12.49 13.34 12.7 13.34 12.91 13.34C12.95 14.07 12.14 14.99 11.5 14.99C8.55 14.99 5.60001 14.99 2.64001 14.99C1.84001 14.99 1.84999 15.06 1.85999 15.92C1.88999 17.5 1.83999 19.09 1.82999 20.68C1.82999 21.09 1.89001 21.5 1.89001 21.91C1.90001 24.55 1.90001 27.19 1.89001 29.83C1.89001 30.07 1.82 30.32 1.84 30.56C1.86 30.77 1.95999 30.97 2.01999 31.17C2.18999 31.07 2.40999 31.01 2.51999 30.85C3.27999 29.78 4.01001 28.7 4.76001 27.62C7.58001 23.57 10.41 19.53 13.23 15.48C15.54 12.16 17.83 8.81998 20.13 5.48998C21.26 3.84998 22.41 2.21999 23.55 0.589988C23.87 0.139988 24.99 -0.179994 25.38 0.140006C25.56 0.290006 25.64 0.679983 25.64 0.959983C25.66 5.58998 25.66 10.23 25.66 14.86C25.66 20.45 25.66 26.04 25.66 31.62C25.66 32.49 25.73 32.54 26.54 32.61C29.87 32.87 32.78 34.23 35.34 36.49C36.73 37.71 37.87 39.15 38.76 40.81C38.84 40.95 39.05 41.02 39.21 41.12C39.26 40.95 39.35 40.79 39.35 40.62C39.34 39.24 39.29 37.87 39.28 36.49C39.27 35.16 39.32 33.83 39.33 32.5C39.34 29.72 39.35 26.94 39.35 24.16C39.35 19.18 39.35 14.2 39.34 9.21999C39.34 7.81999 39.28 6.41998 39.28 5.01998C39.28 4.11998 39.31 3.22 39.35 2.32C39.37 1.84 39.22 1.60998 38.72 1.60998C36.51 1.62998 34.29 1.64 32.08 1.63C31.57 1.63 31.4 1.86 31.4 2.38C31.41 4.73 31.4 7.07998 31.41 9.42998C31.42 11.11 31.47 12.79 31.48 14.47C31.49 20.16 31.49 25.84 31.48 31.53C31.48 31.78 31.36 32.2 31.21 32.25C30.88 32.35 30.47 32.35 30.14 32.23C30.01 32.18 29.95 31.73 29.95 31.46C29.94 26.76 29.94 22.06 29.94 17.36C29.94 11.88 29.94 6.39 29.92 0.909995C29.92 0.309995 30.05 0.0799783 30.66 0.0799783C36.73 0.0699783 42.8 0.0299917 48.87 -8.30673e-06C49.68 -8.30673e-06 49.69 0.0199771 49.69 0.859977C49.69 4.73998 49.69 8.60998 49.69 12.49C49.69 13.27 49.77 13.35 50.48 13.35C55.2 13.35 59.91 13.34 64.63 13.33C65.34 13.33 66.05 13.33 66.77 13.33C67.29 13.33 67.4 13.13 67.4 12.56C67.39 9.75999 67.41 6.97001 67.41 4.17001C67.41 3.08001 67.36 1.98999 67.35 0.899986C67.34 0.169986 67.54 -0.0100083 68.22 -8.30673e-06C68.68 0.00999169 68.89 0.229993 68.88 0.719993C68.87 1.74999 68.88 2.77999 68.88 3.80999C68.89 12.99 68.89 22.16 68.89 31.34C68.89 32.1 68.74 32.27 68.07 32.28C67.63 32.29 67.41 32.13 67.41 31.59C67.43 26.93 67.42 22.27 67.42 17.61C67.42 16.97 67.4 16.34 67.43 15.7C67.45 15.13 67.26 14.88 66.69 14.88C63.22 14.92 59.75 14.96 56.27 14.97C54.8 14.98 53.32 14.93 51.85 14.91C51.33 14.9 50.81 14.9 50.29 14.92C49.87 14.93 49.67 15.13 49.67 15.61C49.71 20.86 49.73 26.11 49.76 31.36C49.76 32.15 49.71 32.21 48.97 32.21C48.26 32.21 48.22 32.16 48.22 31.32C48.22 21.79 48.22 12.27 48.21 2.73998C48.21 1.54998 48.21 1.58998 47.09 1.60998C45.25 1.64998 43.41 1.62 41.57 1.63C40.81 1.63 40.79 1.66 40.79 2.48C40.79 10.71 40.8 18.94 40.8 27.16C40.8 28.62 40.81 30.08 40.81 31.54C40.81 32.05 41.01 32.3 41.52 32.27C43.11 32.19 44.64 32.45 46.07 33.26C47.99 34.34 49.31 35.96 49.84 38.18C50.37 40.4 49.78 42.42 48.41 44.16C47.13 45.78 45.46 46.72 43.5 47.08C42.98 47.17 42.9 47.36 43.22 47.79C46.62 52.45 50.03 57.12 53.44 61.77C53.64 62.04 53.93 62.25 54.17 62.49C54.32 62.17 54.51 61.87 54.6 61.54C55.63 57.61 56.63 53.67 57.66 49.74C58.52 46.46 59.4 43.19 60.26 39.92C60.87 37.59 61.48 35.26 62.06 32.92C62.19 32.38 62.44 32.14 62.95 32.18C63.1 32.19 63.26 32.18 63.42 32.19C64.24 32.2 64.34 32.29 64.55 33.11C65.28 35.94 66.03 38.76 66.75 41.59C67.6 44.93 68.42 48.29 69.27 51.63C69.99 54.44 70.74 57.24 71.47 60.04C71.54 60.32 71.59 60.6 71.69 60.87C71.75 61.02 71.87 61.15 71.97 61.28C72.09 61.14 72.27 61.02 72.31 60.86C72.66 59.6 72.97 58.33 73.31 57.07C73.92 54.78 74.53 52.5 75.14 50.21C75.91 47.33 76.68 44.45 77.46 41.58C78.18 38.92 78.89 36.26 79.62 33.6C79.77 33.04 79.67 32.87 79.08 32.71C75.45 31.69 73.02 29.33 72.06 25.44C71.09 21.47 72.91 17.01 76.26 14.95C76.95 14.53 76.95 14.46 76.29 13.99C74.21 12.48 73.08 10.39 73.06 7.70998C73.03 4.11998 75.82 0.909993 79.18 0.469993C81 0.239993 82.62 0.699979 84.11 1.79998C84.51 2.08998 84.67 2.43999 84.63 2.93999C84.6 3.35999 84.62 3.78001 84.62 4.39001C84.13 3.92001 83.81 3.54998 83.44 3.23998C81.63 1.73998 79.61 1.56999 77.61 2.58999C75.68 3.57999 74.64 5.32998 74.59 7.67998C74.52 10.92 77.1 13.7 80.15 13.51C81.24 13.44 81.23 13.5 81.67 14.54C83.37 18.59 85.07 22.64 86.78 26.69C87.1 27.44 87.38 28.21 87.73 28.94C87.93 29.34 87.8 29.58 87.55 29.85C86.23 31.32 84.63 32.26 82.76 32.7C82.12 32.85 82.04 33.01 82.21 33.69C83.22 37.58 84.23 41.48 85.23 45.37C85.85 47.78 86.44 50.2 87.06 52.61C87.85 55.73 88.65 58.86 89.45 61.98C89.6 62.57 89.75 63.17 89.89 63.77C89.92 63.89 89.92 64.07 89.86 64.16C89.58 64.54 88.44 64.31 88.32 63.84C88 62.66 87.7 61.47 87.4 60.28C87.14 59.25 86.91 58.21 86.64 57.19C85.81 53.95 84.97 50.7 84.14 47.46C83.25 43.98 82.36 40.49 81.47 37.01C81.32 36.43 81.17 35.85 81.03 35.28C80.96 35.28 80.89 35.28 80.82 35.28C80.73 35.44 80.61 35.59 80.56 35.77C79.57 39.58 78.6 43.4 77.6 47.21C76.87 49.99 76.09 52.76 75.35 55.54C74.64 58.22 73.93 60.9 73.24 63.59C73.09 64.17 72.81 64.4 72.25 64.38C70.83 64.34 70.97 64.52 70.6 63.08C69.72 59.58 68.86 56.06 67.96 52.56C67.26 49.81 66.51 47.07 65.8 44.32C65.2 41.97 64.62 39.61 64.03 37.25C63.88 36.64 63.73 36.02 63.55 35.42C63.51 35.27 63.34 35.16 63.23 35.04C63.13 35.17 62.98 35.29 62.94 35.44C61.86 39.53 60.8 43.62 59.73 47.7C58.49 52.44 57.25 57.18 56.01 61.92C55.86 62.49 55.7 63.07 55.59 63.65C55.48 64.22 55.21 64.47 54.66 64.4C54.45 64.37 54.23 64.38 54.02 64.4C53.62 64.43 53.35 64.27 53.09 63.92C49.88 59.51 46.66 55.11 43.45 50.71C42.82 49.85 42.22 48.97 41.58 48.12C41.44 47.93 41.2 47.83 41 47.69C40.95 47.95 40.87 48.22 40.84 48.48C40.82 48.68 40.88 48.89 40.88 49.09C40.88 53.89 40.88 58.7 40.88 63.5C40.88 64.32 40.35 64.73 39.64 64.38C39.47 64.3 39.34 63.93 39.34 63.69C39.32 61.44 39.33 59.19 39.33 56.95C39.33 56.72 39.29 56.49 39.27 56.25C39.23 56.2 39.17 56.18 39.1 56.16Z" fill="black"/>
</svg>
